X:1
T:Doch weichet, ihr tollen, vergeblichen Sorgen ! 
T:BWV 8/4
T:Johann Sebastian Bach arr. André Papillon 
%%score 1 { ( 2 4 ) | 3 }
L:1/8
M:12/8
K:A
V:1 treble nm="Flûte" snm="Fl."
V:2 treble nm="Piano" snm="Pia."
V:4 treble 
V:3 bass 
V:1
 e | (ag)a eac' (ba)b ebd' | (c'b)a (e'd')c' bg/a/b ef/g/a/b/ | %3
 c'ac' c'fc' ^d/c/d/e/f/g/ a/b/c'/b/c'/a/ | bgb beb c/B/c/^d/e/f/ g/a/b/a/b/g/ | %5
 af/g/a ac'a af/g/a aca | af/g/a af'a af/g/a aBa | g/a/bb b3- b6- | b12- | %9
 b/B/c/^d/e/f/ g/e/f/g/a/b/ c'/b/a/b/c'/^d'/ e'/d'/e'/d'/e'/c'/ | %10
 b/a/g/a/b/^d'/ e'/d'/e'/d'/e'/b/ a/g/f/g/a/d'/ e'/d'/e'/d'/e'/a/ | geg aea beb c'ec' | %12
 B^df a[d^d']/[ee']/[ff'] Bdf a[dd']/[ee']/[ff'] | Bde gb/c'/d' Bde gb/c'/d' | %14
 c'/a/g/f/e/^d/ b/g/f/e/d/c/ a/f/e/d/c/B/ g/e/d/c/B/e/ | %15
 =g/f/g/e/c/e/ g/f/g/e/c/e/ f/e/f/^d/B/d/ f/d/e/f/^g/a/ | b(a/g/f/e/) (Be)^d egb e'2 e | %17
 c/d/ee e3- e6- | e6- e3- e/e/f/g/a/b/ | %19
 =c'/b/c'/a/f/a/ c'/b/c'/a/f/a/ b/a/b/g/e/g/ b/g/a/b/^c'/d'/ | %20
 e'(d'/c'/b/a/) (ea)g a[cc'][ee'] [aa']2 z | z2 e'{d'} c'2 z z2 e'{c'} b2 z | %22
 z2 e'{b} a2 z z2 e' ef/g/a/b/ | c'ac' c'fc' ^d/c/d/e/f/g/ a/b/c'/b/c'/a/ | %24
 bgb beb c/B/c/^d/e/f/ g/a/b/a/b/g/ | af/g/a ac'a af/g/a aca | af/g/a af'a af/g/a aBa | %27
 g/a/bb b2 z f/g/aa a2 z | e/f/gb bag f^d/e/f Bc/d/e/f/ | %29
 g/a/b/a/g/f/ ef/g/a/b/ c'/b/a/b/c'/^d'/ e'/d'/e'/d'/e'/c'/ | %30
 b/a/g/a/b/^d'/ e'/d'/e'/d'/e'/b/ a/g/f/g/a/d'/ e'/d'/e'/d'/e'/a/ | geg aea beb c'ec' | %32
 B^df a[d^d']/[ee']/[ff'] Bdf a[dd']/[ee']/[ff'] | Beg b[ee']/[ff']/[gg'] Beg b[ee']/[ff']/[gg'] | %34
 Bfa ^d'[ff']/[gg']/[aa'] Bfa d'[ff']/[gg']/[aa'] | z12 | z6 z/ e'/^d'/c'/b/a/ g/f/e/g/f/a/ | %37
 =g/f/g/e/c/e/ g/f/g/e/c/e/ f/e/f/^d/B/d/ f/d/e/f/^g/a/ | b(a/g/f/e/) (Be)^d egb e'2 z | %39
 z3 z2 g (ag)a (e/g/a/b/c') | z3 z2 ^a (ba)b (f/a/b/c'/d') | z6 b/a/b/g/^e/g/ b/a/b/g/e/g/ | %42
 a/g/a/f/c/f/ a/g/a/f/c/f/ g/f/g/^e/c/e/ g/f/g/e/c/e/ | %43
 a/g/a/f/c/f/ a/g/a/f/c/f/ b/a/b/g/^e/g/ b/a/b/g/e/g/ | %44
 c'/b/c'/=g/e/g/ c'/b/c'/g/e/g/ c'/b/c'/g/e/g/ c'/b/c'/g/e/g/ | %45
 b/^a/b/f/d/f/ c'/b/c'/=a/f/a/ ^d'/c'/d'/a/f/a/ d'/c'/d'/a/f/a/ | %46
 ^d'/c'/d'/a/f/a/ d'/c'/d'/a/f/a/ c'/b/c'/g/^e/g/ c'/b/c'/g/e/g/ | %47
 a/g/a/f/c/f/ ^e/^d/e/c/B/c/ f/e/f/c/A/c/ g/f/g/e/c/e/ | a6- a/g/b/a/g/f/ ^e/g/c'/b/a/g/ | %49
 f/g/a/g/f/e/ ^d/f/b/a/g/f/ e/=d/f/e/d/c/ d/c/e/d/c/B/ | c2 z z2 c (f^e)f cfa | %51
 (gf)g cgb (ag)f (c'b)a | d'2 z z3 z6 | z6 z3 z2 e | (ag)a eac' (ba)b ebd' | %55
 (c'b)a (e'd')c' bg/a/b ef/g/a/b/ | c'ac' c'fc' ^d/c/d/e/f/g/ a/b/c'/b/c'/a/ | %57
 bgb beb c/B/c/^d/e/f/ g/a/b/a/b/g/ | af/g/a ac'a af/g/a aca | af/g/a af'a af/g/a aBa | %60
 g/a/bb b3- b6- | b12- | b/B/c/^d/e/f/ g/e/f/g/a/b/ c'/b/a/b/c'/^d'/ e'/d'/e'/d'/e'/c'/ | %63
 b/a/g/a/b/^d'/ e'/d'/e'/d'/e'/b/ a/g/f/g/a/d'/ e'/d'/e'/d'/e'/a/ | geg aea beb c'ec' | %65
 B^df a[d^d']/[ee']/[ff'] Bdf a[dd']/[ee']/[ff'] | Bde gb/c'/d' Bde gb/c'/d' | %67
 c'/a/g/f/e/^d/ b/g/f/e/d/c/ a/f/e/d/c/B/ g/e/d/c/B/e/ | %68
 =g/f/g/e/c/e/ g/f/g/e/c/e/ f/e/f/^d/B/d/ f/d/e/f/^g/a/ | b(a/g/f/e/) Be^d egb e'2 e | %70
 c/d/ee e3- e6- | e6- e3- e/e/f/g/a/b/ | %72
 =c'/b/c'/a/f/a/ c'/b/c'/a/f/a/ b/a/b/g/e/g/ b/g/a/b/^c'/d'/ | e'(d'/c'/b/a/) (ea)g ac'e' a'2 z | %74
 z2 e'{d'} c'2 z z2 e'{c'} b2 z | z2 e'{b} a2 z z2 e' e2 z | %76
 z/ e/f/g/a/b/ c'/[Aa]/[Bb]/[cc']/[dd']/[ee']/ [ff'][dd']/[ee']/[ff'] [ff'][Bb][ff'] | %77
 g/f/g/a/b/c'/ d'/[ee']/[ff']/[ee']/[ff']/[dd']/ [ee'][cc']/[dd']/[ee'] [ee'][Aa][ee'] | %78
 f/e/f/g/a/b/ c'/[dd']/[ee']/[dd']/[ee']/[cc']/ [dd'][Bb]/[cc']/[dd'] [dd'][ff'][dd'] | %79
 [dd'][Bb]/[cc']/[dd'] [dd'][Ff][dd'] [dd'][Bb]/[cc']/[dd'] [dd'][ee'][dd'] | %80
 [dd'][Bb]/[cc']/[dd'] [dd'][Ee][dd'] [cc']/[dd']/[ee'][ee'] [ee']2 z | %81
 [Bb]/[cc']/[dd'][dd'] [dd']2 z [Aa]/[Bb]/[cc'][ee'] [ee'][dd'][cc'] | %82
 [Bb][Gg]/[Aa]/[Bb] [Ee][Ff]/[Gg]/[Aa]/[Bb]/ [cc']/[dd']/[ee']/[dd']/[cc']/[Bb]/ [Aa]/A/B/c/d/e/ | %83
 f/e/d/e/f/g/ a/g/a/g/a/f/ e/d/c/d/e/g/ a/g/a/g/a/e/ | d/c/B/c/d/g/ a/g/a/g/a/d/ cAc dAd | %85
 eAe fAf EGB dg/a/b | EGB dg/a/b EAc ea/b/c' | EAc ea/b/c' EBd gb/c'/d' | EBd gb/c'/d' z6 | z12 | %90
 z6 z/ A/B/c/d/e/ f/g/a/c'/b/d'/ | =c'/b/c'/a/f/a/ c'/b/c'/a/f/a/ b/a/b/g/e/g/ b/g/a/b/^c'/d'/ | %92
 e'd'/c'/b/a/ eag aec A3 |] %93
V:2
 z | [CE]3 z2 [CE] E3 z2 [EG] | [EA]3- [EA][B,G][EA] [EG]2- [EG]3 [EG] | [EAc]2 z z3 [^DAc]2 z z3 | %4
w: ||||
 [EB]2 z z3 [CGB]2 z z3 | [CFA]2 z z3 [CF]2 z z3 | [B,F]2 z z3 [^DF]2 z z2 B | e^de Beg fef Bfa | %8
w: ||||
 gfe bag f^d/e/f Bc/d/e/f/ | [Bg]2 [GB] [ce]2 [EG] Ace cBA | GBe BAG FAe AGF | %11
w: |||
 [EG]2 z [CE]2 z [B,E]2 z [EF]2 z | [^DF]12 | [B,DE]12 | [EA]2 z [EB]2 z [^DF]2 z [EG]2 z | %15
w: ||||
 [CE=G]6 [^DFB]6 | [EB]2 [CA] [B,G]2 [B,F] [B,G]2- [B,G]3 E | (AGA) E2 c (BAB) E2 d | %18
w: |* * * * * * Doch~|wei- * * chet~ ihr~ tol- * * len~ ver-|
 (cBA e) d c (BG/A/B) E2 z | [FA=c]6 [GBe]6 | [EA]2 [DF] [CE]2 [B,E] [CE]2- [CE]3 E | %21
w: geb- * * * li- chen~ Sor- * * * gen,~||* * * * * * doch~|
 (AGA) E2 c (BAB) E2 d | (cBA e) d c (BG/A/B) E2 E | (EF/G/A/B/ c/d/c/B/A/G/ F/G/A)G F E F | %24
w: wei- * * chet~ ihr~ tol- * * len~ ver-|geb~- * * * li- chen Sor- * * * gen, doch|wei- * * * * * * * * * * * * * chet, wei- chet, ihr|
 (^DE/F/G/A/ B/c/B/A/G/F/ E) G F E D E | (C^D/E/F/G/ A/B/A/G/F/E/ F) A c A G F | B12- | B12- | %28
w: tol- * * * * * * * * * * * len, ver- geb- li- chen|Sor- * * * * * * * * * * * gen, ver- geb- li- chen|Sor-||
 B6- B3 B,2 B | (eB) A G F E A c e (AG) F | G B e (GF) E F A c A G F | G A B B2 z z2 B G F E | %32
w: * * gen! Mich|ru- fet mein Je- sus, wer soll- te nicht gehn, _ wer|soll- te nicht gehn, _ mich ru- fet mein Je- sus, wer|soll- te nicht gehn, wer soll- te nicht|
 ^D2 E D C B, z2 E D C B, | z2 B e B A G B A G F E | B3 z2 E ^D C B, A2 F | %35
w: gehn, wer soll- te nicht, wer soll- te nicht,|mich ru- fet mein Je- sus, wer soll- te nicht|gehn, wer soll- te nicht gehn, mich|
 G E G A E A B E B c2 E | (B,^DF A) G A G2 z z3 | [CE=G]6 [^DFB]6 | %38
w: ru- fet mein Je- sus, wer soll- te nicht gehn, wer|soll- * * * te nicht gehn?||
 [EB]2 [CA] [B,G]2 [B,F] [B,G]3- [B,G]2 B | B G E B2 D C D E A,2 c | c ^A F c2 E D E F B,2 B | %41
w: * * * * * * Nichts,|was mir ge- fällt, be- sit- zet die Welt, nichts,|was mir ge- fällt, be- sit- zet die Welt, be-|
 (BAG A) G F ^E2 z z3 | c z z F z z B z z z2 C | F ^E F (CF) A G F G (CG) B | %44
w: sit- * * * zet die Welt,|nichts, nichts, nichts, nichts,|was mir ge- fällt, _ be- sit- zet die Welt. _ Er-|
 ^A c B A F G A c B (AB/A/G/A/ | B2) B, z2 c ^B G ^A B ^d c | ^B G ^A (Bc/B/A/B/ c2) C z2 C | %47
w: schein- ne mir, se- li- ger, fröh- li- cher Mor- * * * *|* gen, er- schei- ne mir, se- li- ger,|fröh- li- cher Mor- * * * * * gen, ver-|
 (FG/F/^E/F/ GA/G/F/G/ AB/A/G/A/ Bc/B/A/B/ | c) B A A G F d c B c2 C | c B A B2 B, B6- | %50
w: klä- * * * * * * * * * * * * * * * * * * *|* ret, und herr- lich vor Je- su zu stehn, vor|Je- su zu stehn, vor Je-|
 B G ^E C2 c c6- | c12- | c B A G ^E F CEG B A d | A3 BAG F3 z2 [CE] | [CE]3 z2 [CE] E3 z2 [EG] | %55
w: * su zu stehn, ver- klä-||* ret und herr- lich vor Je- * * * su, vor|Je- * su zu stehn. *||
 [EA]3- [EA][B,G][EA] [EG]2- [EG]3 [EG] | [EAc]2 z z3 [^DAc]2 z z3 | [EB]2 z z3 [CGB]2 z z3 | %58
w: |||
 [CFA]2 z z3 [CF]2 z z3 | [B,F]2 z z3 [^DF]2 z z2 B | e^de Beg fef Bfa | %61
w: |||
 gfe bag f^d/e/f Bc/d/e/f/ | [Bg]2 [GB] [ce]2 [EG] Ace cBA | GBe BAG FAe AGF | %64
w: |||
 [EG]2 z [CE]2 z [B,E]2 z [EF]2 z | [^DF]12 | E6 G6 | [CA]2 z [EB]2 z [^DF]2 z [EG]2 z | %68
w: ||||
 [CE=G]6 [^DFB]6 | [EB]2 [CA] [B,G]2 [B,F] [B,G]3- [B,G]2 E | (AGA) E2 c (BAB) E2 d | %71
w: |* * * * * * Doch|wei- * * chet, ihr tol- * * len, ver-|
 (cBA e) d c (BG/A/B) E2 z | [FA=c]6 [EGB]6 | [EA]2 [DF] [CE]2 [B,E] [CE]2- [CE]3 E | %74
w: geb- * * * li- chen Sor- * * * gen,||* * * * * * Doch|
 (AGA) E2 c (BAB) E2 d | (cBA e) d c (BG/A/B) E2 z | z3 z2 A (A/d/c/B/A/=G/ F/E/F/^G/A/F/ | %77
w: wei- * * chet, ihr tol- * * len, ver-|geb- * * * li- chen Sor- * * * gen,|doch wei- * * * * * * * * * * *|
 B/c/d) c B A B (G/c/B/A/G/F/ E/^D/E/F/G/E/ | A) c B A G A (FG/A/B/c/ d/e/d/c/B/A/ | %79
w: * * * chet, wei- chet, ihr tol- * * * * * * * * * * *|* len, ver- geb- li- chen Sor- * * * * * * * * * *|
 B) F E D C B, E6- | E12- | E12- | E3 E2 E A E D C B, A, | D F A D C B, C E A C B, A, | %84
w: * gen, ver- geb- li- chen Sor-|||* gen! Mich ru- fet mein Je- sus, wer|soll- te nicht gehn, _ wer soll- te nicht gehn, _ mich|
 B, D F D C B, C D E E2 z | z2 E c B A G2 A G F E | z2 A G F E z2 E A E D | C E D C B, A, E3 z2 A | %88
w: ru- fet mein Je- sus, wer soll- te nicht gehn,|wer soll- te nicht gehn, wer soll- te nicht,|wer soll- te nicht, mich ru- fet mein|Je- sus, wer soll- te nicht gehn, wer|
 G F E d2 D C A, C D A, D | E A, E F2 B (EGB d) c B | e2 A G B E c2 z z3 | [FA=c]6 [EGB]6 | %92
w: soll- te nicht gehn, mich ru- fet mein Je- sus, wer|soll- te nicht gehn, wer soll- * * * te nicht|gehn, wer soll- te nicht gehn?||
 [EA]2 [DF] [CE]2 [DEG] [CEA]6 |] %93
w: |
V:3
 A,, | A,3 z2 A, G,3 z2 E, | A,,2 B,, C,B,,A,, E,2 F, G,F,E, | A,2 z z3 F,2 z z3 | %4
 G,2 z z3 E,2 z z3 | F,2 z z3 E,2 z z3 | ^D,2 z z3 B,,2 z z3 | z z E,, G,,2 E,, z z B,, ^D,2 B,, | %8
 E,2 F, G,F,E, B,2 C ^DCB, | E2 ^D C2 B, A,3- A,G,F, | G,3- G,F,E, F,3- F,2 B,, | %11
 E,2 z F,2 z G,2 z A,2 z | B,2 z z3 A,2 z z3 | G,2 z z3 E,2 z z3 | A,2 z G,2 z F,2 z E,2 z | %15
 ^A,,A,,A,, A,,A,,A,, =A,,A,,A,, A,,A,,A,, | G,,2 A,, B,,A,,B,, E,,3- E,,2 E, | %17
 A,3 z2 A, G,3 z2 E, | A,,2 B,, C,B,,A,, E,2 F, G,F,E, | ^D,D,D, D,D,D, =D,D,D, D,D,D, | %20
 C,2 D, E,D,E, A,,3 z2 A,, | A,3 z2 A, G,3 z2 E, | A,,2 B,, C,B,,A,, E,2 F, G,F,E, | %23
 A,2 z z3 F,2 z z3 | G,2 z z3 E,2 z z3 | F,2 z z3 E,2 z z3 | ^D,2 z z3 B,,2 z z3 | %27
 z z E,, G,,2 E,, z z B,, ^D,2 B,, | E,2 F, G,F,E, B,,2 C, ^D,C,B,, | E2 B, E,F,G, A,3- A,B,A, | %30
 G,3- G,A,G, F,3- F,2 B,, | E,2 z F,2 z G,2 z A,2 z | B,2 z z3 B,,2 z z3 | B,,2 z z3 B,,2 z z3 | %34
 B,2 z z3 B,,2 z z3 | E,2 z C,2 z G,,2 z A,,2 z | B,,2 A,, B,,2 B,, E,,2 z z3 | %37
 ^A,,A,,A,, A,,A,,A,, =A,,A,,A,, A,,A,,A,, | G,,2 A,, B,,A,,B,, E,,3- E,,2 z | %39
 z z E, G,F,E, A,2 A,, C,B,,A,, | F,2 G, ^A,G,F, B,2 B,, D,C,B,, | ^E,2 z F,=E,D, C,2 z C,,2 z | %42
 C,2 z C,,2 z C,2 z C,,2 z | C,2 z C,,2 z C,2 z C,,2 z | F,2 z F,,2 z F,2 z F,,2 z | %45
 B,,2 B,, F,G,A, G,2 z G,,2 z | G,2 z G,,2 z C,2 ^D, ^E,D,C, | F,12- | F,2 C, F,,G,,A,, B,,6 | %49
 A,,6 G,,2 z F,,2 z | ^E,,2 z E,,2 z z2 F,, A,,2 F,, | z2 C, ^E,2 C, z2 F, A,2 F, | %52
 B,2 z B,,2 z ^E,,2 z F,,2 z | C,2 z C,,2 z F,,2 z z2 A,, | A,3 z2 A, G,3 z2 E, | %55
 A,,2 B,, C,B,,A,, E,2 F, G,F,E, | A,2 z z3 F,2 z z3 | G,2 z z3 E,2 z z3 | F,2 z z3 E,2 z z3 | %59
 ^D,2 z z3 B,,2 z z3 | z2 E, G,2 E, z2 B,, ^D,2 B,, | E,2 F, G,F,E, B,2 C ^DCB, | %62
 E2 ^D C2 B, A,3- A,G,F, | G,3- G,F,E, F,3- F,2 B,, | E,2 z F,2 z G,2 z A,2 z | B,2 z z3 A,2 z z3 | %66
 G,2 z z3 E,2 z z3 | A,2 z G,2 z F,2 z E,2 z | ^A,,A,,A,, A,,A,,A,, =A,,A,,A,, A,,A,,A,, | %69
 G,,2 A,, B,,A,,B,, E,,3- E,,2 E, | A,3 z2 A, G,3 z2 E, | A,,2 B,, C,B,,A,, E,2 F, G,F,E, | %72
 ^D,D,D, D,D,D, =D,D,D, D,D,D, | C,2 D, E,D,E, A,,3 z2 A,, | A,3 z2 A, G,3 z2 E, | %75
 A,,2 B,, C,B,,A,, E,2 F, G,F,E, | A,2 B, CB,A, D2 z z3 | B,2 z z3 C2 z z3 | A,2 z z3 B,2 z z3 | %79
 A,2 z z3 G,2 z z3 | E,2 z z3 z2 A,, C,2 A,, | z z E, G,2 E, A,2 B, CB,A, | %82
 E2 E, G, F, E, C,3 C,, D,, E,, | F,,3- F,,2 G,, A,,3 z2 C, | D,3- D,2 E, A,,2 z B,,2 z | %85
 C,2 z D,2 z E,2 z z3 | E,,2 z z3 E,2 z z3 | E,,2 z z3 E,2 z z3 | E,,2 z z3 A,,2 z B,,2 z | %89
 C,2 z D,2 z E,2 z F,E,D, | C,2 D, E,2 E,, A,,2 z z3 | ^D,D,D, D,D,D, =D,D,D, D,D,D, | %92
 C,2 D, E,D,E, A,,6 |] %93
V:4
 x | x12 | x12 | x12 | x12 | x12 | x12 | x12 | x12 | x12 | x12 | x12 | x12 | x12 | x12 | x12 | %16
 x12 | x12 | x12 | x12 | x12 | x12 | x12 | x12 | x12 | x12 | z3 FAc [^df]2 z FB[Fd] | %27
 [Ge]^de Be[Bg] [Bf]ef Bf[Bda] | [Bg]fe e[F^d][Be] [Fd]2 x4 | x12 | x12 | x12 | x12 | x12 | x12 | %35
 x12 | x12 | x12 | x12 | x12 | x12 | x12 | x12 | x12 | x12 | x12 | x12 | x12 | x12 | x12 | x12 | %51
 x12 | x12 | x12 | x12 | x12 | x12 | x12 | x12 | x12 | x12 | x12 | x12 | x12 | x12 | x12 | %66
 [B,=D]12 | x12 | x12 | x12 | x12 | x12 | x12 | x12 | x12 | x12 | x12 | x12 | x12 | x12 | %80
 z3 z2 E AGA EAc | BAB EBd cBA AGA | G3 x9 | x12 | x12 | x12 | x12 | x12 | x12 | x12 | x12 | x12 | %92
 x12 |] %93

